src/svgs/bottom-records.svg

<svg xmlns="http://www.w3.org/2000/svg" viewBox="0 0 24 24" width="512" height="512" aria-labelledby="blbottom-records-desc blbottom-records-title"><title id="blbottom-records-title">Bottom records</title><desc id="blbottom-records-desc">Shows records positioned at the bottom.</desc><path d="M12 10L8 6h3V2h2v4h3zm4 2H8v2h8zm-4 4H8v2h4zm-6 6h12a2 2 0 002-2V4a2 2 0 00-2-2h-3v2h3v16H6V4h3V2H6a2 2 0 00-2 2v16a2 2 0 002 2z"/></svg>

<svg xmlns="http://www.w3.org/2000/svg" viewBox="0 0 24 24"><path d="M12,10,8,6h3V2h2V6h3Zm4,2H8v2h8Zm-4,4H8v2h4ZM6,22H18a2,2,0,0,0,2-2V4a2,2,0,0,0-2-2H15V4h3V20H6V4H9V2H6A2,2,0,0,0,4,4V20A2,2,0,0,0,6,22Z"/></svg>
